X: 24
T:L'Orientale
M:2/4
L:1/16
C:Baudimant
S:French Creek
K:G dorian
A3G A2B2|ABAG A2B2|c3d c2B2|A2E2 A4|A3G A2B2|!
ABAG A2B2|c3d c2B2|A8:||A3G A2B2|ABAG A2B2|!
G3AG2^F2|GAG^F D4|A3G A2B2|ABAG A2B2|G2GA G2^F2|G8:||


